X:78
T:Svadbeni Cocek
M:2/2
L:1/8
K:C
"A"_B^czczczc|d2^c_B cz3|"A"_B^czczczc|d2^c_B cz3|
"A"^c2_BA B2AG|A2GF G2FE|"Gm"F2ED "A"E2D^C|"A"^C_B,CD Cz3:|:
"A"^c2_BA B2AG|A2GF G2FE|"Gm"F2ED "A"E2D^C|"A"^C_B,CD EFGA|
"A"^c2_BA B2AG|A2GF G2FE|"Gm"F2ED "A"E2D^C|"A"^C_B,CD Cz3:|
"A"^C2^c2C2c2|"Gm"^c_BBG "A"AGA2|"A"^C2^c2C2c2|"Gm"^c_BBG "A"AGA2|
"A"^C2^c2C2c2|"Gm"^c_BBG "A"AGA2|"A"^C2^c2C2c2|"Gm"^c_BBG "A"AGA2|
"A"G4 A2F2|"Dm"F4 G2E2|"Gm"E4 F2ED|"A"^C_B,CD EFGA|
"A"G4 A2F2|"Dm"F4 G2E2|"Gm"E4 F2ED|"A"^C_B,CD Cz3|:
"A"GEGE A2GF|"Dm"FDFD G2FE|"Gm"D_B,DB, E2D^C|"A"^C_B,CD EFGA|
"A"GEGE A2GF|"Dm"FDFD G2FE|"Gm"D_B,DB, E2D^C|"A"^C_B,CD Cz3:||
